rospo-dark/16x16/actions/image-straighten.svg

<svg height="16" viewBox="0 0 16 16" width="16" xmlns="http://www.w3.org/2000/svg"><path d="m13.029297 1.03125c-.095.00089-.15625.03125-.15625.03125l-11.810547 2.0625c-.9848.17365-.8125 1.15625-.8125 1.15625l.46875 2.71875h3.09375l1.125-1.9375 2.4375 1.9375h2.3125l.90625-1.21875 1.75 1.21875h2.59375l-.90625-5.125c-.13023-.7386-.71488-.84642-1-.84375zm-12.029297 6.96875v1h1v-1zm2 0v1h1v-1zm2 0v1h1v-1zm2 0v1h1v-1zm2 0v1h1v-1zm2 0v1h1v-1zm2 0v1h1v-1zm2 0v1h1v-1zm-13.75 2 .71875 4.15625c.17364.9848 1.15625.8125 1.15625.8125l11.810547-2.09375s.98614-.17149.8125-1.15625l-.310547-1.71875h-2l .1875 1.0625-9.84375 1.75-.5-2.8125z" fill="#d3dae3"/></svg>

<?xml version="1.0" encoding="UTF-8" standalone="no"?>
<svg xmlns="http://www.w3.org/2000/svg" width="22" height="22" viewBox="0 0 22 22">
 <defs>
  <style type="text/css" id="current-color-scheme">
   .ColorScheme-Text { color:#d3dae3; } .ColorScheme-Highlight { color:#5294e2; }
  </style>
 </defs>
 <path style="fill:currentColor;opacity:1" class="ColorScheme-Text" transform="translate(3 3)" d="M 13.029297 1.03125 C 12.934297 1.03214 12.873047 1.0625 12.873047 1.0625 L 1.0625 3.125 C 0.0777 3.29865 0.25 4.28125 0.25 4.28125 L 0.71875 7 L 3.8125 7 L 4.9375 5.0625 L 7.375 7 L 9.6875 7 L 10.59375 5.78125 L 12.34375 7 L 14.9375 7 L 14.03125 1.875 C 13.90102 1.1364 13.31637 1.02858 13.03125 1.03125 L 13.029297 1.03125 z M 1 8 L 1 9 L 2 9 L 2 8 L 1 8 z M 3 8 L 3 9 L 4 9 L 4 8 L 3 8 z M 5 8 L 5 9 L 6 9 L 6 8 L 5 8 z M 7 8 L 7 9 L 8 9 L 8 8 L 7 8 z M 9 8 L 9 9 L 10 9 L 10 8 L 9 8 z M 11 8 L 11 9 L 12 9 L 12 8 L 11 8 z M 13 8 L 13 9 L 14 9 L 14 8 L 13 8 z M 15 8 L 15 9 L 16 9 L 16 8 L 15 8 z M 1.25 10 L 1.96875 14.15625 C 2.14239 15.14105 3.125 14.96875 3.125 14.96875 L 14.935547 12.875 C 14.935547 12.875 15.921687 12.70351 15.748047 11.71875 L 15.4375 10 L 13.4375 10 L 13.625 11.0625 L 3.78125 12.8125 L 3.28125 10 L 1.25 10 z"/>
</svg>
